media/fig-closure-den.svg

<!-- Created with Inkscape (http://www.inkscape.org/) -->
<svg xmlns:inkscape="http://www.inkscape.org/namespaces/inkscape" xmlns:sodipodi="http://sodipodi.sourceforge.net/DTD/sodipodi-0.dtd" xmlns="http://www.w3.org/2000/svg" xmlns:svg="http://www.w3.org/2000/svg" xmlns:vectornator="http://vectornator.io" viewBox="0 0 1475.2799 1088.9493" version="1.1" id="svg1" inkscape:version="1.4.2 (ebf0e940d0, 2025-05-08)" sodipodi:docname="fig-closure-den.svg" xml:space="preserve">
  <sodipodi:namedview id="namedview1" pagecolor="#282a36" bordercolor="#44475a" borderopacity="0.24705882" inkscape:showpageshadow="2" inkscape:pageopacity="0.0" inkscape:pagecheckerboard="0" inkscape:deskcolor="#44475a" inkscape:document-units="px" inkscape:zoom="0.30575512" inkscape:cx="21.258843" inkscape:cy="214.22372" inkscape:window-width="2234" inkscape:window-height="1418" inkscape:window-x="0" inkscape:window-y="0" inkscape:window-maximized="1" inkscape:current-layer="layer1-3" showguides="true">
    <sodipodi:guide position="251.36105,445.84963" orientation="1,0" id="guide9" inkscape:locked="false"/>
    <sodipodi:guide position="1223.4868,1418.6357" orientation="1,0" id="guide10" inkscape:locked="false"/>
    <sodipodi:guide position="245.84088,1422.7595" orientation="0,-1" id="guide11" inkscape:locked="false"/>
    <sodipodi:guide position="251.36105,445.84963" orientation="0,-1" id="guide12" inkscape:locked="false"/>
    <sodipodi:guide position="-351.24854,1730.5675" orientation="0,1" id="guide13" inkscape:locked="false" inkscape:label="" inkscape:color="rgb(0,134,229)"/>
    <sodipodi:guide position="-62.106724,1168.5884" orientation="-1,0" id="guide14" inkscape:locked="false" inkscape:label="" inkscape:color="rgb(0,134,229)"/>
    <sodipodi:guide position="1537.8933,130.56754" orientation="-1,0" id="guide15" inkscape:locked="false" inkscape:label="" inkscape:color="rgb(0,134,229)"/>
    <sodipodi:guide position="490.69367,130.56754" orientation="0,1" id="guide16" inkscape:locked="false" inkscape:label="" inkscape:color="rgb(0,134,229)"/>
    <sodipodi:guide position="737.89328,986.84163" orientation="-1,0" id="guide17" inkscape:locked="false" inkscape:label="" inkscape:color="rgb(0,134,229)"/>
    <sodipodi:guide position="868.90879,930.56754" orientation="0,1" id="guide18" inkscape:locked="false" inkscape:label="" inkscape:color="rgb(0,134,229)"/>
  </sodipodi:namedview>
  <defs id="defs1">
    <inkscape:path-effect effect="knot" id="path-effect954" is_visible="true" lpeversion="1" switcher_size="15" interruption_width="3" prop_to_stroke_width="true" add_stroke_width="inkscape_1.0_and_up" both="false" inverse_width="false" add_other_stroke_width="inkscape_1.0_and_up" crossing_points_vector="726.20509 | 342.12732 | 0 | 0 | 0 | 3 | 0.83949445 | 3.4847435 | 1 | 262.46978 | 340.0839 | 0 | 0 | 1 | 4 | 1.5854418 | 4.7931247 | 1 | 500.65425 | 875.88589 | 0 | 0 | 2 | 5 | 2.8163314 | 5.6118873 | 1"/>
  </defs>
  <g inkscape:label="Layer 1" inkscape:groupmode="layer" id="layer1" transform="translate(270.75505,-236.27811)">
    <g style="clip-rule:evenodd;fill-rule:nonzero;stroke-linecap:round;stroke-linejoin:round;stroke-miterlimit:10" id="g1" transform="translate(496.98775,15.934086)" class="">
      <g id="Layer-1" vectornator:layerName="Layer 1" transform="translate(-6.4614711,0.44143466)">

        

    </g>
    </g>
    <g id="layer1-3" transform="translate(-520.4657,73.5817)">
      <path d="m 1327.7959,367.06032 148.2367,-148.1345 C 1787.5854,-93.082179 1787.5854,1506.9178 1472.3033,1193.45 L 1331.2437,1052.4862 M 640.9231,362.63242 499.51733,221.32432 C 187.58551,-93.082179 187.58551,1506.9178 498.71482,1195.5803 l 147.31051,-147.212" class="" style="fill:none;stroke:#ff851b;stroke-width:31.5148;stroke-linecap:butt;stroke-linejoin:miter;stroke-dasharray:none;stroke-opacity:1" id="path1-1" sodipodi:nodetypes="cccccccc"/>
      <g style="display:inline;fill:#aaaaaa" id="g2-7" transform="matrix(0,-1.4265318,1.4262701,0,487.57551,1206.9198)" class="">
        <path d="M 95.987,238.496 C 55.967,234.87 22.49,206.592 12.233,167.749 8.22,152.551 8.22,134.381 12.233,119.183 21.913,82.528 51.87,55.449 89.637,49.218 c 6.991,-1.154 22.642,-1.154 29.633,0 41.257,6.807 72.625,38.175 79.432,79.431 1.85,11.211 0.998,27.643 -2.028,39.1 -9.657,36.57 -39.811,63.872 -77.228,69.921 -4.454,0.72 -18.981,1.232 -23.46,0.826 m 22.401,-5.72 c 52.756,-8.696 86.477,-59.58 73.702,-111.214 C 183.383,86.378 154.491,60.009 118.211,54.137 111.312,53.02 97.204,53.019 90.518,54.134 51.205,60.693 21.449,90.482 15.132,129.606 c -1.068,6.615 -1.147,20.3 -0.155,26.736 6.489,42.08 39.946,73.562 82.067,77.22 4.23,0.368 17.254,-0.112 21.343,-0.787" class="" style="display:inline;fill:#aaaaaa;fill-opacity:1;stroke:none;stroke-width:0.352778;stroke-opacity:1" transform="matrix(3.68074,0,0,3.68391,-33.947,-177.97)" id="path2-2"/>
      </g>
      <path d="m 843.2749,563.22779 h 288.6532" class="" style="fill:#aaaaaa;fill-opacity:0.766511;stroke:#ff4136;stroke-width:16.1733;stroke-miterlimit:3.6;stroke-dasharray:none" id="path3-7"/>
      <path d="M 1005.8497,849.21895 V 563.22779" class="" style="fill:#aaaaaa;fill-opacity:0.766511;stroke:#ff4136;stroke-width:16.1733;stroke-miterlimit:3.6;stroke-dasharray:none" id="path4-2"/>
      <path d="M 969.35151,599.83149 V 849.21895" class="" style="fill:#aaaaaa;fill-opacity:0.766511;stroke:#ff4136;stroke-width:16.1733;stroke-miterlimit:3.6;stroke-dasharray:none" id="path5-2"/>
      <text xml:space="preserve" style="font-size:112px;font-family:Inter;-inkscape-font-specification:Inter;text-align:start;writing-mode:lr-tb;direction:ltr;text-anchor:start;fill:none;stroke-width:20;stroke-linecap:round;stroke-linejoin:round;stroke-dasharray:20, 40;paint-order:stroke fill markers" x="1502.0723" y="3151.7493" id="text6" class="">
        <tspan sodipodi:role="line" id="tspan6" x="1502.0723" y="3151.7493"/>
      </text>
    </g>
  </g>
</svg>

<svg xmlns="http://www.w3.org/2000/svg" xml:space="preserve" viewBox="0 0 1475.28 1088.949"><path d="m1327.796 367.06 148.237-148.134c311.552-312.008 311.552 1287.992-3.73 974.524l-141.06-140.964m-690.32-689.854L499.517 221.324c-311.931-314.406-311.931 1285.594-.802 974.256l147.31-147.212" style="fill:none;stroke:#ff851b;stroke-width:31.5148;stroke-linecap:butt;stroke-linejoin:miter;stroke-dasharray:none;stroke-opacity:1" transform="translate(-249.71 -162.696)"/><g style="display:inline;fill:#616161aaa"><path d="M95.987 238.496c-40.02-3.626-73.497-31.904-83.754-70.747-4.013-15.198-4.013-33.368 0-48.566 9.68-36.655 39.637-63.734 77.404-69.965 6.991-1.154 22.642-1.154 29.633 0 41.257 6.807 72.625 38.175 79.432 79.431 1.85 11.211.998 27.643-2.028 39.1-9.657 36.57-39.811 63.872-77.228 69.921-4.454.72-18.981 1.232-23.46.826m22.401-5.72c52.756-8.696 86.477-59.58 73.702-111.214-8.706-35.184-37.598-61.553-73.878-67.425-6.899-1.117-21.007-1.118-27.693-.003-39.313 6.559-69.069 36.348-75.386 75.472-1.068 6.615-1.147 20.3-.155 26.736 6.489 42.08 39.946 73.562 82.067 77.22 4.23.368 17.254-.112 21.343-.787" style="display:inline;fill:#616161aaa;fill-opacity:1;stroke:none;stroke-width:.352778;stroke-opacity:1" transform="matrix(0 -5.2507 5.25425 0 -15.968 1092.65)"/></g><path d="M843.275 563.228h288.653M1005.85 849.219V563.228M969.352 599.831V849.22" style="fill:#616161aaa;fill-opacity:.766511;stroke:#ff4136;stroke-width:16.1733;stroke-miterlimit:3.6;stroke-dasharray:none" transform="translate(-249.71 -162.696)"/><text xml:space="preserve" x="1502.072" y="3151.749" style="font-size:112px;font-family:Inter;-inkscape-font-specification:Inter;text-align:start;writing-mode:lr-tb;direction:ltr;text-anchor:start;fill:none;stroke-width:20;stroke-linecap:round;stroke-linejoin:round;stroke-dasharray:20,40;paint-order:stroke fill markers" transform="translate(-249.71 -162.696)">
        
      </text></svg>
